Delta/apps/scalable/twitter.svg

<svg xmlns="http://www.w3.org/2000/svg" width="192" height="192" viewBox="0 0 192 192">
  <path fill="#9ABEFF" fill-rule="evenodd" d="M182.307267,37.4074241 C182.336898,37.9012755 181.794649,39.8984105 181.621801,40.3744833 C179.847887,45.2458333 173.025824,49.2914639 167.856188,50.2633634 C167.847299,50.2653388 167.831495,50.2673142 167.821618,50.2683019 C172.278133,48.4114207 176.012637,44.8329736 177.921867,39.9853284 C179.34811,36.3653977 179.552564,32.5676805 178.735734,29.0445447 C178.593505,29.5867936 178.420657,30.1280547 178.210276,30.6633896 C175.321245,37.9951073 166.400314,41.3473705 159.703689,38.7082287 C159.29478,38.5472331 158.922416,38.3526557 158.922416,38.3526557 C158.679441,38.1412873 158.410786,37.9654762 158.129291,37.8104069 C149.052302,28.5605704 135.276812,24.537657 122.013939,28.5516811 C104.813095,33.7588501 93.1621533,52.5331044 96.0985937,68.2227629 C95.3350994,68.5812991 94.5972854,68.990208 93.8970042,69.4643053 C93.8970042,69.4643053 92.4598966,70.0095173 90.9042648,70.4164508 C65.4323979,77.068629 34.5054487,60.9977172 27.2211408,33.1099294 C26.6897567,31.0732862 26.3006018,29.0346677 26.0191065,27 C21.5122187,39.4371533 20.5936552,53.3193158 24.1898809,67.0869048 C26.5495029,76.121422 30.6287153,84.2512035 35.9840398,91.2154958 C30.7986002,89.3902211 25.8897174,86.6177394 21.5625916,82.8101452 C20.1472135,81.564652 18.8365319,80.2450811 17.6078297,78.8751374 C20.4948849,90.3710099 26.771736,101.140921 36.3425759,109.563063 C40.6094519,113.317321 45.2625196,116.346605 50.1457221,118.694375 C42.9127747,119.076616 35.5356227,117.542713 28.9506083,113.650177 C27.5895539,112.846187 26.3035649,111.965156 25.0778257,111.028813 C29.2538331,120.043577 36.1075026,127.929396 45.3069662,133.366699 C51.2736787,136.893786 57.6690542,139.05488 64.1306057,139.954677 C51.2282444,149.619348 35.4447541,155.599889 18.3999673,155.599889 C15.2166013,155.599889 12.0845958,155.389508 9,155.02307 C25.47587,166.371775 45.4393184,173.021978 66.9583987,173.021978 C123.459936,173.021978 169.263664,127.21825 169.263664,70.7167124 C169.263664,70.7167124 169.258726,66.9259092 168.630547,61.8481292 C176.279317,59.8223509 180.473103,52.7652145 182.063305,48.354134 C182.954212,45.884877 183.961669,40.1324961 182.307267,37.4074241"/>
</svg>

<svg width="192" height="192" version="1.1" viewBox="0 0 192 192" xmlns="http://www.w3.org/2000/svg">
 <path d="m182.31 37.407c0.029631 0.49385-0.51262 2.491-0.68547 2.9671-1.7739 4.8714-8.596 8.917-13.766 9.8889-0.008889 0.0019754-0.024693 0.0039508-0.03457 0.0049385 4.4565-1.8569 8.191-5.4353 10.1-10.283 1.4262-3.6199 1.6307-7.4176 0.81387-10.941-0.14223 0.54225-0.31508 1.0835-0.52546 1.6188-2.889 7.3317-11.81 10.684-18.507 8.0448-0.40891-0.161-0.78127-0.35557-0.78127-0.35557-0.24298-0.21137-0.51163-0.38718-0.79312-0.54225-9.077-9.2498-22.852-13.273-36.115-9.2587-17.201 5.2072-28.852 23.981-25.915 39.671-0.76349 0.35854-1.5013 0.76745-2.2016 1.2415 0 0-1.4371 0.54521-2.9927 0.95215-25.472 6.6522-56.399-9.4187-63.683-37.307-0.53138-2.0366-0.92054-4.0753-1.202-6.1099-4.5069 12.437-5.4255 26.319-1.8292 40.087 2.3596 9.0345 6.4388 17.164 11.794 24.129-5.1854-1.8253-10.094-4.5978-14.421-8.4054-1.4154-1.2455-2.7261-2.5651-3.9548-3.935 2.8871 11.496 9.1639 22.266 18.735 30.688 4.2669 3.7543 8.9199 6.7835 13.803 9.1313-7.2329 0.38224-14.61-1.1517-21.195-5.0442-1.3611-0.80399-2.647-1.685-3.8728-2.6214 4.176 9.0148 11.03 16.901 20.229 22.338 5.9667 3.5271 12.362 5.6882 18.824 6.588-12.902 9.6647-28.686 15.645-45.731 15.645-3.1834 0-6.3154-0.21038-9.4-0.57682 16.476 11.349 36.439 17.999 57.958 17.999 56.502 0 102.31-45.804 102.31-102.31 0 0-0.004938-3.7908-0.63312-8.8686 7.6488-2.0258 11.843-9.0829 13.433-13.494 0.89091-2.4693 1.8984-8.2216 0.24396-10.947" fill="#9ABEFF" fill-rule="evenodd"/>
</svg>
